X:1
T:Never Love Thee More
C:Traditional
M:6/8
L:1/8
Q:3/8=120
K:G
G2A Bcd|e2d cBA|Bcd e2d|c3 -c3|G2A Bcd|e2d cBA|dBc A2G|G3 -G3||
